X:1
T:Laban, SM
T:Laban, SM
T:Lowell Mason, 1830
T:Public Domain Courtesy of the Cyber Hymnal™
C:Lowell Mason, 1830
Z:Public Domain
Z:Courtesy of the Cyber Hymnal™
%%score 1 ( 2 3 )
L:1/8
Q:1/4=115
M:4/4
K:C
V:1 treble 
V:2 bass 
V:3 bass 
V:1
 ([CE]3 [DF]) | [EG]2 [EG]2 [EG]2 [Ec]2 | [EG]4 [Ge]4 | [Gd]2 [Ec]2 [DB]2 [DA]2 | %4
 [DG]4 ([CE]3 [DF]) | [EG]2 [EG]2 [EG]2 [Gc]2 | [FB]4 [Ec]4 | [Gd]4 [Gd]4 | %8
 [Ge]2 [Gc]2 [EG]2 [FB]2 | [Ec]4 |] %10
V:2
 [C,C]4 | [C,C]2 [C,C]2 [C,C]2 [C,G,]2 | [C,C]4 [C,C]4 | [B,,G,]2 [C,G,]2 [D,G,]2 [D,C]2 | %4
 [G,B,]4 [C,C]4 | [C,C]2 [C,C]2 [C,C]2 [E,G,]2 | [D,G,]4 (G,2 C2) | [G,B,]4 [G,B,]4 | %8
 C2 [E,C]2 [G,C]2 [G,,G,]2 | [C,G,]4 |] %10
V:3
 x4 | x8 | x8 | x8 | x8 | x8 | x4 C,4 | x8 | C2 x6 | x4 |] %10

